icons/modern/chart-decreasing.svg

<svg width="32" height="32" viewBox="0 0 32 32" fill="none" xmlns="http://www.w3.org/2000/svg">
<g filter="url(#filter0_iii_18_22971)">
<rect x="2.04688" y="2.04688" width="27.9062" height="27.9062" rx="3.8" fill="url(#paint0_linear_18_22971)"/>
</g>
<rect x="2.04688" y="2.04688" width="27.9062" height="27.9062" rx="3.8" fill="url(#paint1_linear_18_22971)"/>
<rect x="2.04688" y="2.04688" width="27.9062" height="27.9062" rx="3.8" fill="url(#paint2_radial_18_22971)"/>
<rect x="2.04688" y="2.04688" width="27.9062" height="27.9062" rx="3.8" fill="url(#paint3_radial_18_22971)"/>
<path fill-rule="evenodd" clip-rule="evenodd" d="M11.5234 2.04688H10.5234V10.4375H2.04688V11.4375H10.5234V20.4062H2.04688V21.4062H10.5234V29.9531H11.5234V21.4062H20.5234V29.9531H21.5234V21.4062H29.9531V20.4062H21.5234V11.4375H29.9531V10.4375H21.5234V2.04688H20.5234V10.4375H11.5234V2.04688ZM20.5234 11.4375V20.4062H11.5234V11.4375H20.5234Z" fill="url(#paint4_linear_18_22971)"/>
<path fill-rule="evenodd" clip-rule="evenodd" d="M11.5234 2.04688H10.5234V10.4375H2.04688V11.4375H10.5234V20.4062H2.04688V21.4062H10.5234V29.9531H11.5234V21.4062H20.5234V29.9531H21.5234V21.4062H29.9531V20.4062H21.5234V11.4375H29.9531V10.4375H21.5234V2.04688H20.5234V10.4375H11.5234V2.04688ZM20.5234 11.4375V20.4062H11.5234V11.4375H20.5234Z" fill="url(#paint5_linear_18_22971)"/>
<path fill-rule="evenodd" clip-rule="evenodd" d="M11.5234 2.04688H10.5234V10.4375H2.04688V11.4375H10.5234V20.4062H2.04688V21.4062H10.5234V29.9531H11.5234V21.4062H20.5234V29.9531H21.5234V21.4062H29.9531V20.4062H21.5234V11.4375H29.9531V10.4375H21.5234V2.04688H20.5234V10.4375H11.5234V2.04688ZM20.5234 11.4375V20.4062H11.5234V11.4375H20.5234Z" fill="url(#paint6_linear_18_22971)"/>
<path fill-rule="evenodd" clip-rule="evenodd" d="M11.5234 2.04688H10.5234V10.4375H2.04688V11.4375H10.5234V20.4062H2.04688V21.4062H10.5234V29.9531H11.5234V21.4062H20.5234V29.9531H21.5234V21.4062H29.9531V20.4062H21.5234V11.4375H29.9531V10.4375H21.5234V2.04688H20.5234V10.4375H11.5234V2.04688ZM20.5234 11.4375V20.4062H11.5234V11.4375H20.5234Z" fill="url(#paint7_linear_18_22971)"/>
<g filter="url(#filter1_f_18_22971)">
<path d="M28.9606 26.9816C29.0604 26.6547 29.1141 26.3076 29.1141 25.948V24.5053L22.5283 17.9194C21.6344 17.0255 20.1901 17.0099 19.277 17.8842L17.0178 19.8712C16.8353 20.046 16.5465 20.0429 16.3677 19.8643L2.84003 6.34947C2.74865 6.6634 2.69965 6.99538 2.69965 7.3388V8.83782L15.0534 21.1799C15.9474 22.073 17.3912 22.0883 18.3039 21.2144L20.5631 19.2273C20.7457 19.0524 21.0346 19.0556 21.2133 19.2344L28.9606 26.9816Z" fill="#988FB6"/>
<path d="M28.9606 26.9816C29.0604 26.6547 29.1141 26.3076 29.1141 25.948V24.5053L22.5283 17.9194C21.6344 17.0255 20.1901 17.0099 19.277 17.8842L17.0178 19.8712C16.8353 20.046 16.5465 20.0429 16.3677 19.8643L2.84003 6.34947C2.74865 6.6634 2.69965 6.99538 2.69965 7.3388V8.83782L15.0534 21.1799C15.9474 22.073 17.3912 22.0883 18.3039 21.2144L20.5631 19.2273C20.7457 19.0524 21.0346 19.0556 21.2133 19.2344L28.9606 26.9816Z" fill="url(#paint8_radial_18_22971)"/>
</g>
<g filter="url(#filter2_i_18_22971)">
<path d="M29.788 27.2647C29.8954 26.9131 29.9531 26.5399 29.9531 26.1531V24.6014L22.87 17.5183C21.9086 16.5569 20.3552 16.5401 19.3732 17.4804L17.4462 19.3256C17.2498 19.5136 16.9393 19.5103 16.747 19.3181L2.19786 4.78284C2.09957 5.12047 2.04688 5.47752 2.04688 5.84688V7.45908L15.3334 20.733C16.2949 21.6936 17.8477 21.7101 18.8294 20.7701L20.7564 18.9249C20.9528 18.7369 21.2635 18.7402 21.4558 18.9325L29.788 27.2647Z" fill="url(#paint9_linear_18_22971)"/>
</g>
<path d="M29.788 27.2647C29.8954 26.9131 29.9531 26.5399 29.9531 26.1531V24.6014L22.87 17.5183C21.9086 16.5569 20.3552 16.5401 19.3732 17.4804L17.4462 19.3256C17.2498 19.5136 16.9393 19.5103 16.747 19.3181L2.19786 4.78284C2.09957 5.12047 2.04688 5.47752 2.04688 5.84688V7.45908L15.3334 20.733C16.2949 21.6936 17.8477 21.7101 18.8294 20.7701L20.7564 18.9249C20.9528 18.7369 21.2635 18.7402 21.4558 18.9325L29.788 27.2647Z" fill="url(#paint10_linear_18_22971)"/>
<g filter="url(#filter3_f_18_22971)">
<path d="M29.9531 25.1595L22.1852 17.6242C21.606 17.0624 20.6862 17.0594 20.1034 17.6174L18.1586 19.4797C17.5703 20.043 16.64 20.0339 16.0628 19.4592L2.62391 6.07812" stroke="url(#paint11_linear_18_22971)" stroke-width="0.5"/>
</g>
<defs>
<filter id="filter0_iii_18_22971" x="1.04688" y="1.04688" width="30.4062" height="29.9062" filterUnits="userSpaceOnUse" color-interpolation-filters="sRGB">
<feFlood flood-opacity="0" result="BackgroundImageFix"/>
<feBlend mode="normal" in="SourceGraphic" in2="BackgroundImageFix" result="shape"/>
<feColorMatrix in="SourceAlpha" type="matrix" values="0 0 0 0 0 0 0 0 0 0 0 0 0 0 0 0 0 0 127 0" result="hardAlpha"/>
<feOffset dx="-1" dy="1"/>
<feGaussianBlur stdDeviation="1"/>
<feComposite in2="hardAlpha" operator="arithmetic" k2="-1" k3="1"/>
<feColorMatrix type="matrix" values="0 0 0 0 0.878431 0 0 0 0 0.87451 0 0 0 0 0.886275 0 0 0 1 0"/>
<feBlend mode="normal" in2="shape" result="effect1_innerShadow_18_22971"/>
<feColorMatrix in="SourceAlpha" type="matrix" values="0 0 0 0 0 0 0 0 0 0 0 0 0 0 0 0 0 0 127 0" result="hardAlpha"/>
<feOffset dx="1.5" dy="-1"/>
<feGaussianBlur stdDeviation="1.5"/>
<feComposite in2="hardAlpha" operator="arithmetic" k2="-1" k3="1"/>
<feColorMatrix type="matrix" values="0 0 0 0 0.698039 0 0 0 0 0.67451 0 0 0 0 0.721569 0 0 0 1 0"/>
<feBlend mode="normal" in2="effect1_innerShadow_18_22971" result="effect2_innerShadow_18_22971"/>
<feColorMatrix in="SourceAlpha" type="matrix" values="0 0 0 0 0 0 0 0 0 0 0 0 0 0 0 0 0 0 127 0" result="hardAlpha"/>
<feOffset dx="0.25"/>
<feGaussianBlur stdDeviation="0.25"/>
<feComposite in2="hardAlpha" operator="arithmetic" k2="-1" k3="1"/>
<feColorMatrix type="matrix" values="0 0 0 0 0.729412 0 0 0 0 0.729412 0 0 0 0 0.729412 0 0 0 1 0"/>
<feBlend mode="normal" in2="effect2_innerShadow_18_22971" result="effect3_innerShadow_18_22971"/>
</filter>
<filter id="filter1_f_18_22971" x="1.69965" y="5.34949" width="28.4145" height="22.6321" filterUnits="userSpaceOnUse" color-interpolation-filters="sRGB">
<feFlood flood-opacity="0" result="BackgroundImageFix"/>
<feBlend mode="normal" in="SourceGraphic" in2="BackgroundImageFix" result="shape"/>
<feGaussianBlur stdDeviation="0.5" result="effect1_foregroundBlur_18_22971"/>
</filter>
<filter id="filter2_i_18_22971" x="2.04688" y="4.28284" width="27.9062" height="22.9818" filterUnits="userSpaceOnUse" color-interpolation-filters="sRGB">
<feFlood flood-opacity="0" result="BackgroundImageFix"/>
<feBlend mode="normal" in="SourceGraphic" in2="BackgroundImageFix" result="shape"/>
<feColorMatrix in="SourceAlpha" type="matrix" values="0 0 0 0 0 0 0 0 0 0 0 0 0 0 0 0 0 0 127 0" result="hardAlpha"/>
<feOffset dy="-0.5"/>
<feGaussianBlur stdDeviation="1"/>
<feComposite in2="hardAlpha" operator="arithmetic" k2="-1" k3="1"/>
<feColorMatrix type="matrix" values="0 0 0 0 0.215686 0 0 0 0 0.388235 0 0 0 0 0.733333 0 0 0 1 0"/>
<feBlend mode="normal" in2="shape" result="effect1_innerShadow_18_22971"/>
</filter>
<filter id="filter3_f_18_22971" x="1.84752" y="5.301" width="28.8797" height="20.638" filterUnits="userSpaceOnUse" color-interpolation-filters="sRGB">
<feFlood flood-opacity="0" result="BackgroundImageFix"/>
<feBlend mode="normal" in="SourceGraphic" in2="BackgroundImageFix" result="shape"/>
<feGaussianBlur stdDeviation="0.3" result="effect1_foregroundBlur_18_22971"/>
</filter>
<linearGradient id="paint0_linear_18_22971" x1="27.125" y1="3.875" x2="11.875" y2="23.3125" gradientUnits="userSpaceOnUse">
<stop stop-color="#D8D1E0"/>
<stop offset="1" stop-color="#D5C9E3"/>
</linearGradient>
<linearGradient id="paint1_linear_18_22971" x1="21.4751" y1="30.2157" x2="21.4751" y2="27.9181" gradientUnits="userSpaceOnUse">
<stop stop-color="#A88AC4"/>
<stop offset="1" stop-color="#CDBCE0" stop-opacity="0"/>
</linearGradient>
<radialGradient id="paint2_radial_18_22971" cx="0" cy="0" r="1" gradientUnits="userSpaceOnUse" gradientTransform="translate(29.9531 16.3954) rotate(177.86) scale(5.59248 21.8038)">
<stop stop-color="#F2EDF5"/>
<stop offset="1" stop-color="#DED3E7" stop-opacity="0"/>
</radialGradient>
<radialGradient id="paint3_radial_18_22971" cx="0" cy="0" r="1" gradientUnits="userSpaceOnUse" gradientTransform="translate(29.5863 2.88832) rotate(138.434) scale(4.93201 5.10499)">
<stop stop-color="#F7F4F7"/>
<stop offset="1" stop-color="#E2DCE5" stop-opacity="0"/>
</radialGradient>
<linearGradient id="paint4_linear_18_22971" x1="16" y1="4.35938" x2="16" y2="29.9531" gradientUnits="userSpaceOnUse">
<stop stop-color="#C2BEC6"/>
<stop offset="1" stop-color="#BAACC6"/>
</linearGradient>
<linearGradient id="paint5_linear_18_22971" x1="21.7188" y1="30.6683" x2="21.7188" y2="27.1871" gradientUnits="userSpaceOnUse">
<stop stop-color="#9E83B7"/>
<stop offset="1" stop-color="#9E83B7" stop-opacity="0"/>
</linearGradient>
<linearGradient id="paint6_linear_18_22971" x1="1.07813" y1="17.3594" x2="6.39062" y2="17.3594" gradientUnits="userSpaceOnUse">
<stop stop-color="#96909C"/>
<stop offset="1" stop-color="#96909C" stop-opacity="0"/>
</linearGradient>
<linearGradient id="paint7_linear_18_22971" x1="30.7656" y1="18.0469" x2="26.9531" y2="18.0469" gradientUnits="userSpaceOnUse">
<stop stop-color="#D6D1DA"/>
<stop offset="1" stop-color="#D6D1DA" stop-opacity="0"/>
</linearGradient>
<radialGradient id="paint8_radial_18_22971" cx="0" cy="0" r="1" gradientUnits="userSpaceOnUse" gradientTransform="translate(21.1699 19.4763) rotate(108.072) scale(3.0185 3.7468)">
<stop offset="0.493714" stop-color="#6B5F94"/>
<stop offset="1" stop-color="#6B5F94" stop-opacity="0"/>
</radialGradient>
<linearGradient id="paint9_linear_18_22971" x1="5.31398" y1="3.59383" x2="27.9219" y2="23.1719" gradientUnits="userSpaceOnUse">
<stop stop-color="#53C2FF"/>
<stop offset="1" stop-color="#3B9EDE"/>
</linearGradient>
<linearGradient id="paint10_linear_18_22971" x1="4.63341" y1="3.73686" x2="2.6434" y2="7.50058" gradientUnits="userSpaceOnUse">
<stop offset="0.420444" stop-color="#4EC0FC"/>
<stop offset="1" stop-color="#4EC0FC" stop-opacity="0"/>
</linearGradient>
<linearGradient id="paint11_linear_18_22971" x1="3.89063" y1="5.47205" x2="28.7677" y2="23.6595" gradientUnits="userSpaceOnUse">
<stop stop-color="#55C1FF"/>
<stop offset="1" stop-color="#549AE0"/>
</linearGradient>
</defs>
</svg>

<svg width="32" height="32" fill="none" xmlns="http://www.w3.org/2000/svg"><g filter="url(#a)"><rect x="2.047" y="2.047" width="27.906" height="27.906" rx="3.8" fill="url(#b)"/></g><rect x="2.047" y="2.047" width="27.906" height="27.906" rx="3.8" fill="url(#c)"/><rect x="2.047" y="2.047" width="27.906" height="27.906" rx="3.8" fill="url(#d)"/><rect x="2.047" y="2.047" width="27.906" height="27.906" rx="3.8" fill="url(#e)"/><path fill-rule="evenodd" clip-rule="evenodd" d="M11.523 2.047h-1v8.39H2.047v1h8.476v8.97H2.047v1h8.476v8.546h1v-8.547h9v8.547h1v-8.547h8.43v-1h-8.43v-8.968h8.43v-1h-8.43V2.046h-1v8.39h-9v-8.39Zm9 9.39v8.97h-9v-8.97h9Z" fill="url(#f)"/><path fill-rule="evenodd" clip-rule="evenodd" d="M11.523 2.047h-1v8.39H2.047v1h8.476v8.97H2.047v1h8.476v8.546h1v-8.547h9v8.547h1v-8.547h8.43v-1h-8.43v-8.968h8.43v-1h-8.43V2.046h-1v8.39h-9v-8.39Zm9 9.39v8.97h-9v-8.97h9Z" fill="url(#g)"/><path fill-rule="evenodd" clip-rule="evenodd" d="M11.523 2.047h-1v8.39H2.047v1h8.476v8.97H2.047v1h8.476v8.546h1v-8.547h9v8.547h1v-8.547h8.43v-1h-8.43v-8.968h8.43v-1h-8.43V2.046h-1v8.39h-9v-8.39Zm9 9.39v8.97h-9v-8.97h9Z" fill="url(#h)"/><path fill-rule="evenodd" clip-rule="evenodd" d="M11.523 2.047h-1v8.39H2.047v1h8.476v8.97H2.047v1h8.476v8.546h1v-8.547h9v8.547h1v-8.547h8.43v-1h-8.43v-8.968h8.43v-1h-8.43V2.046h-1v8.39h-9v-8.39Zm9 9.39v8.97h-9v-8.97h9Z" fill="url(#i)"/><g filter="url(#j)"><path d="M28.96 26.982c.1-.327.154-.674.154-1.034v-1.443l-6.586-6.586a2.324 2.324 0 0 0-3.251-.035l-2.26 1.987a.465.465 0 0 1-.65-.007L2.84 6.35c-.091.314-.14.646-.14.99v1.499L15.053 21.18a2.325 2.325 0 0 0 3.25.034l2.26-1.987a.465.465 0 0 1 .65.007l7.748 7.748Z" fill="#988FB6"/><path d="M28.96 26.982c.1-.327.154-.674.154-1.034v-1.443l-6.586-6.586a2.324 2.324 0 0 0-3.251-.035l-2.26 1.987a.465.465 0 0 1-.65-.007L2.84 6.35c-.091.314-.14.646-.14.99v1.499L15.053 21.18a2.325 2.325 0 0 0 3.25.034l2.26-1.987a.465.465 0 0 1 .65.007l7.748 7.748Z" fill="url(#k)"/></g><g filter="url(#l)"><path d="M29.788 27.265c.107-.352.165-.725.165-1.112v-1.552l-7.083-7.083a2.5 2.5 0 0 0-3.497-.038l-1.927 1.846a.5.5 0 0 1-.699-.008L2.197 4.783a3.801 3.801 0 0 0-.15 1.064v1.612l13.286 13.274a2.5 2.5 0 0 0 3.496.037l1.927-1.845a.5.5 0 0 1 .7.008l8.332 8.332Z" fill="url(#m)"/></g><path d="M29.788 27.265c.107-.352.165-.725.165-1.112v-1.552l-7.083-7.083a2.5 2.5 0 0 0-3.497-.038l-1.927 1.846a.5.5 0 0 1-.699-.008L2.197 4.783a3.801 3.801 0 0 0-.15 1.064v1.612l13.286 13.274a2.5 2.5 0 0 0 3.496.037l1.927-1.845a.5.5 0 0 1 .7.008l8.332 8.332Z" fill="url(#n)"/><g filter="url(#o)"><path d="m29.953 25.16-7.768-7.536a1.5 1.5 0 0 0-2.082-.007L18.16 19.48a1.5 1.5 0 0 1-2.096-.02L2.623 6.077" stroke="url(#p)" stroke-width=".5"/></g><defs><linearGradient id="b" x1="27.125" y1="3.875" x2="11.875" y2="23.313" gradientUnits="userSpaceOnUse"><stop stop-color="#D8D1E0"/><stop offset="1" stop-color="#D5C9E3"/></linearGradient><linearGradient id="c" x1="21.475" y1="30.216" x2="21.475" y2="27.918" gradientUnits="userSpaceOnUse"><stop stop-color="#A88AC4"/><stop offset="1" stop-color="#CDBCE0" stop-opacity="0"/></linearGradient><linearGradient id="f" x1="16" y1="4.359" x2="16" y2="29.953" gradientUnits="userSpaceOnUse"><stop stop-color="#C2BEC6"/><stop offset="1" stop-color="#BAACC6"/></linearGradient><linearGradient id="g" x1="21.719" y1="30.668" x2="21.719" y2="27.187" gradientUnits="userSpaceOnUse"><stop stop-color="#9E83B7"/><stop offset="1" stop-color="#9E83B7" stop-opacity="0"/></linearGradient><linearGradient id="h" x1="1.078" y1="17.359" x2="6.391" y2="17.359" gradientUnits="userSpaceOnUse"><stop stop-color="#96909C"/><stop offset="1" stop-color="#96909C" stop-opacity="0"/></linearGradient><linearGradient id="i" x1="30.766" y1="18.047" x2="26.953" y2="18.047" gradientUnits="userSpaceOnUse"><stop stop-color="#D6D1DA"/><stop offset="1" stop-color="#D6D1DA" stop-opacity="0"/></linearGradient><linearGradient id="m" x1="5.314" y1="3.594" x2="27.922" y2="23.172" gradientUnits="userSpaceOnUse"><stop stop-color="#53C2FF"/><stop offset="1" stop-color="#3B9EDE"/></linearGradient><linearGradient id="n" x1="4.633" y1="3.737" x2="2.643" y2="7.501" gradientUnits="userSpaceOnUse"><stop offset=".42" stop-color="#4EC0FC"/><stop offset="1" stop-color="#4EC0FC" stop-opacity="0"/></linearGradient><linearGradient id="p" x1="3.891" y1="5.472" x2="28.768" y2="23.66" gradientUnits="userSpaceOnUse"><stop stop-color="#55C1FF"/><stop offset="1" stop-color="#549AE0"/></linearGradient><filter id="a" x="1.047" y="1.047" width="30.406" height="29.906" filterUnits="userSpaceOnUse" color-interpolation-filters="sRGB"><feFlood flood-opacity="0" result="BackgroundImageFix"/><feBlend in="SourceGraphic" in2="BackgroundImageFix" result="shape"/><feColorMatrix in="SourceAlpha" values="0 0 0 0 0 0 0 0 0 0 0 0 0 0 0 0 0 0 127 0" result="hardAlpha"/><feOffset dx="-1" dy="1"/><feGaussianBlur stdDeviation="1"/><feComposite in2="hardAlpha" operator="arithmetic" k2="-1" k3="1"/><feColorMatrix values="0 0 0 0 0.878431 0 0 0 0 0.87451 0 0 0 0 0.886275 0 0 0 1 0"/><feBlend in2="shape" result="effect1_innerShadow_18_22971"/><feColorMatrix in="SourceAlpha" values="0 0 0 0 0 0 0 0 0 0 0 0 0 0 0 0 0 0 127 0" result="hardAlpha"/><feOffset dx="1.5" dy="-1"/><feGaussianBlur stdDeviation="1.5"/><feComposite in2="hardAlpha" operator="arithmetic" k2="-1" k3="1"/><feColorMatrix values="0 0 0 0 0.698039 0 0 0 0 0.67451 0 0 0 0 0.721569 0 0 0 1 0"/><feBlend in2="effect1_innerShadow_18_22971" result="effect2_innerShadow_18_22971"/><feColorMatrix in="SourceAlpha" values="0 0 0 0 0 0 0 0 0 0 0 0 0 0 0 0 0 0 127 0" result="hardAlpha"/><feOffset dx=".25"/><feGaussianBlur stdDeviation=".25"/><feComposite in2="hardAlpha" operator="arithmetic" k2="-1" k3="1"/><feColorMatrix values="0 0 0 0 0.729412 0 0 0 0 0.729412 0 0 0 0 0.729412 0 0 0 1 0"/><feBlend in2="effect2_innerShadow_18_22971" result="effect3_innerShadow_18_22971"/></filter><filter id="j" x="1.7" y="5.349" width="28.415" height="22.632" filterUnits="userSpaceOnUse" color-interpolation-filters="sRGB"><feFlood flood-opacity="0" result="BackgroundImageFix"/><feBlend in="SourceGraphic" in2="BackgroundImageFix" result="shape"/><feGaussianBlur stdDeviation=".5" result="effect1_foregroundBlur_18_22971"/></filter><filter id="l" x="2.047" y="4.283" width="27.906" height="22.982" filterUnits="userSpaceOnUse" color-interpolation-filters="sRGB"><feFlood flood-opacity="0" result="BackgroundImageFix"/><feBlend in="SourceGraphic" in2="BackgroundImageFix" result="shape"/><feColorMatrix in="SourceAlpha" values="0 0 0 0 0 0 0 0 0 0 0 0 0 0 0 0 0 0 127 0" result="hardAlpha"/><feOffset dy="-.5"/><feGaussianBlur stdDeviation="1"/><feComposite in2="hardAlpha" operator="arithmetic" k2="-1" k3="1"/><feColorMatrix values="0 0 0 0 0.215686 0 0 0 0 0.388235 0 0 0 0 0.733333 0 0 0 1 0"/><feBlend in2="shape" result="effect1_innerShadow_18_22971"/></filter><filter id="o" x="1.848" y="5.301" width="28.88" height="20.638" filterUnits="userSpaceOnUse" color-interpolation-filters="sRGB"><feFlood flood-opacity="0" result="BackgroundImageFix"/><feBlend in="SourceGraphic" in2="BackgroundImageFix" result="shape"/><feGaussianBlur stdDeviation=".3" result="effect1_foregroundBlur_18_22971"/></filter><radialGradient id="d" cx="0" cy="0" r="1" gradientUnits="userSpaceOnUse" gradientTransform="matrix(-5.58858 .20883 -.81418 -21.7886 29.953 16.395)"><stop stop-color="#F2EDF5"/><stop offset="1" stop-color="#DED3E7" stop-opacity="0"/></radialGradient><radialGradient id="e" cx="0" cy="0" r="1" gradientUnits="userSpaceOnUse" gradientTransform="matrix(-3.69009 3.2723 -3.38707 -3.81951 29.586 2.888)"><stop stop-color="#F7F4F7"/><stop offset="1" stop-color="#E2DCE5" stop-opacity="0"/></radialGradient><radialGradient id="k" cx="0" cy="0" r="1" gradientUnits="userSpaceOnUse" gradientTransform="matrix(-.93637 2.86959 -3.56196 -1.1623 21.17 19.476)"><stop offset=".494" stop-color="#6B5F94"/><stop offset="1" stop-color="#6B5F94" stop-opacity="0"/></radialGradient></defs></svg>
